img/sprite/location.svg

<svg width="20" height="20" viewBox="0 0 20 20" fill="none" xmlns="http://www.w3.org/2000/svg">
<path fill-rule="evenodd" clip-rule="evenodd" d="M10.2079 1.66602C13.9988 1.66602 17.0829 4.77352 17.0829 8.59352C17.0829 13.2893 11.7029 17.916 10.2079 17.916C8.71295 17.916 3.33295 13.2893 3.33295 8.59352C3.33295 4.77352 6.41711 1.66602 10.2079 1.66602ZM10.2079 2.91602C7.10628 2.91602 4.58295 5.46352 4.58295 8.59352C4.58295 12.576 9.26961 16.456 10.2079 16.6627C11.1463 16.4552 15.8329 12.5752 15.8329 8.59352C15.8329 5.46352 13.3096 2.91602 10.2079 2.91602ZM10.2088 5.83268C11.7021 5.83268 12.9171 7.04768 12.9171 8.54185C12.9171 10.0352 11.7021 11.2493 10.2088 11.2493C8.71545 11.2493 7.50045 10.0352 7.50045 8.54185C7.50045 7.04768 8.71545 5.83268 10.2088 5.83268ZM10.2088 7.08268C9.40461 7.08268 8.75045 7.73685 8.75045 8.54185C8.75045 9.34602 9.40461 9.99935 10.2088 9.99935C11.0129 9.99935 11.6671 9.34602 11.6671 8.54185C11.6671 7.73685 11.0129 7.08268 10.2088 7.08268Z" fill="#B0B0B2"/>
</svg>

<svg width="20" height="20" fill="none" xmlns="http://www.w3.org/2000/svg"><path fill-rule="evenodd" clip-rule="evenodd" d="M10.208 1.666c3.79 0 6.875 3.108 6.875 6.928 0 4.695-5.38 9.322-6.875 9.322s-6.875-4.627-6.875-9.322c0-3.82 3.084-6.928 6.875-6.928Zm0 1.25c-3.102 0-5.625 2.548-5.625 5.678 0 3.982 4.687 7.862 5.625 8.069.938-.208 5.625-4.088 5.625-8.07 0-3.13-2.523-5.677-5.625-5.677Zm0 2.917a2.712 2.712 0 0 1 2.71 2.709 2.71 2.71 0 0 1-2.71 2.707A2.71 2.71 0 0 1 7.5 8.542a2.712 2.712 0 0 1 2.709-2.71Zm0 1.25a1.46 1.46 0 1 0 1.458 1.46 1.46 1.46 0 0 0-1.457-1.46Z" fill="#B0B0B2"/></svg>
